X:1
T:Monks Gate
T:Monks Gate
T:Public domain
T:Public domain
Z:Public domain
%%score { ( 1 2 ) ( 3 4 ) }
L:1/8
Q:1/4=150
M:2/4
K:D
V:1 treble nm="P1"
V:2 treble 
V:3 bass nm="P2"
V:4 bass 
V:1
"^Editor: John Henry Fowler""^( Revision: 11-21-2007 )" D3- E |[M:4/4] F2 D2 FG A2 | B4 A4 | %3
[M:7/4]"^( 1917 )" A2 D2 C2 D4 D3 E | %4
[M:4/4]"^Ralph Vaughan Williams" F2 D2 FG"^( 1872 - 1958 )" A2 | B4 A4 |[M:7/4] A2 D2 C2 D4 A4 | %7
[M:4/4] d2 B2 c2 dc | B6 A2 | FE D2 F2 G2 | A6 d2 | A3 A BA GF | E2 B2 A2 D2 |[M:5/4] C2 D8 |] %14
V:2
 A,4 |[M:4/4] D2 A,2 D2 C2 | B,4 C4 |[M:7/4] D2 A,2 A,2 A,4 A,4 |[M:4/4] D2 A,2 D2 C2 | B,4 C4 | %6
[M:7/4] D2 A,2 A,2 A,4 D3 E |[M:4/4] F2 F2 G2 FE | D6 E2 | D2 A,2 D2 D2 | C6 D2 | C2 D2 D2 D2 | %12
 E2 C2 D2 B,2 |[M:5/4] A,2 A,8 |] %14
V:3
 F,3 G, |[M:4/4] A,2 F,2 D,2 E,2 | G,4 A,4 |[M:7/4] A,2 A,2 G,2 F,4 F,3 G, | %4
[M:4/4] [D,A,]2 [D,F,]2 [B,,D,]2 [A,,E,]2 | [G,,G,]4 [G,A,]4 |[M:7/4] A,2 A,2 G,2 F,4 F,4 | %7
[M:4/4] B,2 B,2 B,2 ^A,2 | B,4 G,2 E,2 | A,2 A,2 F,2 D,2 | E,4 G,2 F,2 | G,2 F,2 G,2 B,2 | %12
 C2 C2 G,2 F,2 |[M:5/4] G,2 F,8 |] %14
V:4
 D,4 |[M:4/4] D,2 D,2 B,,2 A,,2 | G,,4 G,4 |[M:7/4] F,2 F,2 E,2 D,4 D,4 |[M:4/4] x8 | x8 | %6
[M:7/4] F,2 F,2 E,2 D,4 D,3 C, |[M:4/4] B,,2 D,2 E,2 F,2 | G,4 B,,2 C,2 | D,2 F,2 D,2 B,,2 | %10
 A,,2 A,2 G,2 F,2 | E,2 D,2 G,2 E,2 | A,2 G,2 F,2 D,2 |[M:5/4] A,,2 D,8 |] %14

